dist/svg/warning-triangle.svg

<svg width="16" height="16" viewBox="0 0 16 16" fill="rgb(34, 34, 34)" xmlns="http://www.w3.org/2000/svg"><title>warning-triangle</title><path d="M15.86 13.4899L8.85999 1.48994C8.68399 1.18994 8.36199 0.991943 7.99499 0.991943C7.62799 0.991943 7.30599 1.18994 7.13299 1.48594L7.12999 1.49094L0.12999 13.4909C0.0419902 13.6369 -0.0100098 13.8129 -0.0100098 14.0009C-0.0100098 14.5529 0.43799 15.0009 0.98999 15.0009C0.99299 15.0009 0.99699 15.0009 0.99999 15.0009H14.999C15.551 15.0009 15.999 14.5529 15.999 14.0009C15.999 13.8129 15.947 13.6369 15.857 13.4859L15.86 13.4909V13.4899ZM8.99999 12.9999H6.99999V10.9999H8.99999V12.9999ZM8.99999 9.99994H6.99999V4.99994H8.99999V9.99994Z" fill="rgb(34, 34, 34)" fill-opacity="1.00"/></svg>

<!-- Generated by Trend Micro Style Portal -->
<svg version="1.1" xmlns="http://www.w3.org/2000/svg" width="16" height="16" viewBox="0 0 16 16">
  <title>warning-triangle</title>
  <path fill="rgb(34,34,34)" d="M15.86 13.49l-7-12c-0.176-0.3-0.498-0.498-0.865-0.498s-0.689 0.198-0.862 0.494l-0.003 0.005-7 12c-0.088 0.146-0.14 0.322-0.14 0.51 0 0.552 0.448 1 1 1 0.003 0 0.007 0 0.010 0h13.999c0.552 0 1-0.448 1-1 0-0.188-0.052-0.364-0.142-0.515l0.003 0.005zM9 13h-2v-2h2zM9 10h-2v-5h2z"></path>
</svg>
